X:1
T:ECHO
T:César Antonovich Cui (1835-1918)
T:F.Sollogoub, translated by Rosa Newmarch
T:ECHO
T:Copyright © CPDL
T:(Op. 59 No.6)
T:Copyright © CPDL
T:Copyright © CPDL
T:Copyright © CPDL
T:Copyright © CPDL
C:César Antonovich Cui (1835-1918)
Z:F.Sollogoub, translated by Rosa Newmarch
Z:Copyright © CPDL
%%score [ 1 2 3 4 ]
L:1/8
Q:1/4=100
M:3/4
K:C
V:1 treble nm="Soprano" snm="S."
V:2 treble nm="Alto" snm="A."
V:3 treble-8 transpose=-12 nm="Tenor" snm="T."
V:4 bass nm="Bass" snm="B."
V:1
!p!"^Allegretto." G2 |[Q:1/4=104] G3 (A/B/) c (B/A/) | G!<(! (A/B/) cd e!<)!g | z!p! .d .d2 .e2 | %4
w: With|in the * wood a _|trick- sy _ imp's a- bid- ing,|The E- cho-|
 .c2 z2!p! G2 | G3 (A/B/) c (B/A/) | G!<(! (A/B/) cd e!<)!g | z!p! .A .A2 .B2 | .G3 z!p! d2 | %9
w: sprite. With|mock- ing _ laugh- ter _|there he _ lurks in hid- ing,|Where trees make|night. He|
 Td6- | d6- | d6- | d (e/^f/) gf ed | c (d/e/) dc (BA) | G (A/B/) (AG) (^FE) | D2 z D E^F | %16
w: wears|_||* a _ jer- kin, so they|tell all * wo- ven of _|for- est _ gras- * ses _|green, A jaunt- y|
 G!<(!A Bc ^cd!<)! |!pp! (e2 a2) d2- | d2 g2 d2 | (c2 e2) d2 | G2 z2!p! G2 | G3 (A/B/) c (B/A/) | %22
w: cap be- comes right well, His|wind _ toss'd|_ locks of|gold- * en|sheen. To|mor- tals' * calls he _|
 G!<(! (A/B/) cd e!<)!g | z!p! .d .d2 .e2 | .c2 z2!p! G2 | G3 (A/B/) c (B/A/) | %26
w: loves to _ be re- ply- ing,|Con- ceal'd from|sight. We|hear his * voice, his *|
 G!<(! (A/B/) c (d/e/) fg!<)! |!f! a2- a z!p! d2 | e4 e2 | c z z2 A2 | G4 G2 | G!mf! (A/B/) cB AG | %32
w: pres- ence * ne'er de- * scry- ing.|Ah! _ thou|E- cho-|sprite, We|hear thee|sprite thy _ pres- ence ne'er de-|
!p! Tg6- | (g6- | gf/e/ d/c/B/A/) Gd | c2 z!p! E FD | E z z e fd | e z/ .c/ .c2 .c2 | .c2 z2 z2 || %39
w: scry-||* * * * * * * ing. Thou|sprite, Tho' out of|sight, We hear thee|sprite, Tho'- out of|sight.|
V:2
!p! E2 | E3 (A/G/) ^FF | G!<(!E GG G!<)!G | z!p! .B .B2 .B2 | .c2 z2!p! G2 | G3 (A/G/) ^FF | %6
w: With-|in the * wood a|trick- sy imp's a- bid- ing,|The E- cho-|sprite. With|mock- ing _ laugh- ter|
 G!<(!G GG G!<)!c | z!p! .E .E2 .^F2 | .G3 z!p! B2 | B3 B cA | G>A B2 B2 | B2 GB A^F | G2- G z z2 | %13
w: there he lurks in hid- ing,|Where trees make|night, He|wears a jer- kin|so they tell, All|wo- ven from gras- ses|green! _|
 G2 z2 ^F2 | G2 z2 ^C2 | D2 z2 z2 | z6 |!mf! c (d/e/) dc BA | B (c/d/) cB AG | %19
w: Aye, of|grass so|green.||And a _ jaunt- y cap be-|comes right * well his tos- sing|
 A (B/c/) (BA) (E^F) | G2 z2!p! =F2 | E3 E ^DD | E2!<(! C=D E!<)!G | z!p! .B .B2 .B2 | %24
w: locks of _ gold- * en _|sheen. To|mor- tals' calls he's|ev- er re- ply- ing,|Con- ceal'd from|
 .c2 z2!p! E2 | E3 E ^DD | E2!<(! G2 FG!<)! |!f! A2- A z!p! A2 | ^G4 G2 | A z z2 F2 | F4 F2 | %31
w: sight. We|hear his voice, no|pres- ence spy- ing.|Ah! _ thou|E- cho-|sprite, We|hear thee|
 E2 z2 z2 |!p! c3 c dB | c>d e2 c2 | c2 GE FF | E2 z!p! C A,B, | C z z c AB | c z/ .E/ .E2 .E2 | %38
w: sprite,|Mor- tals hear his|voice, no pres- ence|spy- ing, Thou trick- sy|sprite, Tho' out of|sight, We hear thee|sprite, Tho'- out of|
 .E2 z2 z2 || %39
w: sight.|
V:3
!p! c2 | c3 e ^dd | e!<(!c e=d c!<)!e | z!p! .g .g2 .f2 | .e2 z2!p! e2 | e3 e ^dd | %6
w: With-|in the wood a|trick- sy imp's a- bid- ing,|The E- cho-|sprite. With|mock- ing laugh- ter|
 e!<(!!<(!e e=d e!<)!!<)!e | z!p! .c .c2 .c2 | .B3 z!p! g2 | g3 d ec | B>c d2 d2 | g2 dd dd | %12
w: there he lurks in hid- ing,|Where trees make|night. He|wears a jer- kin|so they tell, All|wo- ven from gras- ses|
 d2- d z z2 | e2 z2 ^d2 | e2 z2 G2 | ^F!<(!G (AB) c!<)!c | B z z2 z2 |!p! g2 z2 ^f2 | g2 z2 d2 | %19
w: green! _|Aye, of|grass so|green, a jer- * kin of|green.|Aye, a|coat of|
 e2 z2 c2 | B2 z2!p! B2 | c3 G ^FF | G2!<(!!<(! GB c!<)!!<)!e |!p! z .g .g2 .f2 | .e2 z2!p! G2 | %25
w: grass so|green. To|mor- tals' calls he's|ev er re- ply- ing,|Con- ceal'd from|sight. We|
 G3 G ^FF | G2!<(! e2 cc!<)! |!f! c2- c z!p! d2 | d4 d2 | c z z2 c2 | B4 B2 | c2 z2 z2 | %32
w: hear his voice, no|pres- ence spy- ing.|Ah! _ thou|E- cho-|sprite, We|hear thee|sprite,|
!p! e3 e fd | e>f g2 e2 | e2 ec AB | c2 z!p! G GG | G z z g gg | g z/ .G/ .G2 .G2 | .G2 z2 z2 || %39
w: Mor- tals hear his|voice, no pres- ence|spy- ing, Thou trick- sy|sprite, Tho' out of|sight, We hear thee|sprite, Tho'- out of|sight.|
V:4
 z2 | z6 | z6 | z!p! .G, .G,2 .G,2 | .C2 z2!p! C2 | C3 C CC | CC CB, CA, | z!p! .C .C2 .D,2 | %8
w: |||The E- cho-|sprite. With|mock- ing laugh- ter|there he lurks in hid- ing,|Where trees make|
 .G,3 z z2 | z6 | z2 z2!p! D2 | (D2 B,)D CA, | B,2- B, z z2 | A,2 z2 B,2 | E,2 z2 A,,2 | %15
w: night.||He|wears _ a jer- kin|green! _|Aye, of|grass so|
 D,2 z2 z2 | z6 |!p! A,2 z2 D2 | G,2 z2 B,2 | (A,2 C2) D,2 | G,2 z2!p! G,2 | C,3 C, C,C, | %22
w: green.||Aye, a|coat of|grass _ so|green. To|mor- tals' call- ing,|
 C,2 E,G, C2 |!p! z .G, .G,2 .G,2 | .C2 z2!p! C,2 | C,3 C, C,C, | C,2!<(! CB, A,G,!<)! | %27
w: he makes re- ply,|Con- ceal'd from|sight. We|hear his voice, no|pres- ence de- scry- ing.|
!f! F,2- F, z!p! F,2 | E,4 E,2 | A, z z2 D,2 | G,4 G,2 | C,2 z2 z2 |!p! G,4 G,2 | G,2 G,2 G,2 | %34
w: Ah! _ thou|E- cho-|sprite, We|hear thee|sprite,|Trick- sy|sprite, we hear|
 G,4 G,2 | C2 z!p! C, C,C, | C, z z2 z2 | C z/ .C,/ .C,2 .C,2 | .C,2 z2 z2 || %39
w: thy voice,|sprite, Tho' out of|sight,|Sprite, Tho'- out of|sight.|

